!!!OTL: Ansingelied zum Neujahre
!!!ARE: Europa, Mitteleuropa, Deutschland
!!!SCT: A0530B
!!!YEM: Copyright 1995, estate of Helmut Schaffrath.
**kern
*ICvox
*Ivox
*M3/1
*k[]
*C:
{1c
=1
2G
2A
1c
1d
=2
2c
2d
1c}
{1e
=3
2f
2e
1d
1G
=4
2A
2B
1c
2r}
{2d
=5
2d
2d
1e
1d
=6
2c
2A
1G}
{1g
=7
2f
2e
1d
1c
=8
2c
2B
1c}
==
!!!AGN: Romanze, Ballade, Lied, religioeses Lied
!! Leisentrits Gsgb. 1584.
!!!ONB: ESAC (Essen Associative Code) Database: ALTDEU
!!!AMT: simple triple
!!!AIN: vox
!!!EED: Helmut Schaffrath
!!!EEV: 1.0
*-
